!!!!SEGMENT: pl-wtm--r-1226--005_lodwigowski-edward-stefan--dla-kochanej-helenki.krn
!!!cenid: 18xx:1921
!!!COM: Åodwigowski, Edward Stefan
!!!COM-rismid: pe30111147
!!!CDT: 1815/08/14-1895/11/12
!!!CNT: Polish
!!!OTL: Dla kochanej Helenki
!!!PDT:
!!!AGN:
!!!SMS-siglum: PL-Wtm
!!!SMS-shelfmark: R 1226
!!!SMS-shelfwork: 005 W
!!!SMS-variant:
!!!SMS-altvar:
!!!NIFC-rismid: 1001083983
!!!URL-scan: http://repozytorium.nifc.pl/skany/pl-wtm-nut--r1226-1227
!!!ONB-nifc: UWAGA: No. 53
!!!OMD: No 53. Allegretto
**kern	**fing	**kern	**fing	**dynam
*part1	*	*part1	*	*part1
*staff2	*	*staff1	*	*
*I"Fortepian	*	*I"Fortepian	*	*
*clefF4	*	*clefG2	*	*
*k[f#]	*	*k[f#]	*	*
*G:	*	*G:	*	*
*M3/4	*	*M3/4	*	*
=1	=1	=1	=1	=1
*all\right	*	*all\right	*	*
*^	*	*	*	*
!	!	!	!LO:TX:a:t=Dla Kochanej Helenki. J. Kornorowskiego.	!	!LO:DY:rj:t=mf.
*	*2\right	*below	*	*	*
!	!LO:N:vis=2.	!	!	!	!
2.G/	4G\	4	(8c#X/L	2	mf
.	.	.	8d/J)	1	.
.	4d 4B\	.	4b\	5	.
.	4d 4B\	.	4b\	3	.
=2	=2	=2	=2	=2	=2
!	!LO:N:vis=2.	!	!	!	!
2.C/	4C\	5	8a\	2	.
.	.	.	8r	.	.
.	4A 4E\	.	(4.cc^\	.	.
.	4A 4E\	.	.	.	.
.	.	.	8a\)	.	.
=3	=3	=3	=3	=3	=3
!	!LO:N:vis=2.	!	!	!	!
2.D/	4D\	5	(8g/L	1	.
.	.	.	8f#/J	3	.
.	4c 4A 4F#\	.	4e/	.	.
.	4c 4A 4F#\	.	4d/	.	.
=4	=4	=4	=4	=4	=4
!	!LO:N:vis=2.	!	!	!	!
2.G/	4G\	5	8g/)|	.	.
.	.	.	8r	.	.
.	(>4c#X 4A#X\	.	(4.ee^\	5	.
.	4d'> 4B\)	.	.	.	.
.	.	.	8dd\)	.	.
=5	=5	=5	=5	=5	=5
!	!LO:N:vis=2.	!	!	!	!
2.C/	4C\	.	(8cc\L	.	.
.	.	.	8b\J	.	.
.	4A 4E\	.	4a/	.	.
.	4A 4E\	.	8g/L	4	.
.	.	.	8e/J)	.	.
=6	=6	=6	=6	=6	=6
!	!LO:N:vis=2.	!	!	!	!
2.D/	4D\	.	(2d/	.	.
.	4B 4G\	.	.	.	.
.	4B 4G\	.	4g/)	3	.
!!LO:LB:g=original
=7	=7	=7	=7	=7	=7
!	!LO:N:vis=2.	!	!	!	!
2.D/	4D\	.	(8f#/L	2	.
.	.	.	8g/J	1	<
.	4c 4F#\	.	4a/	.	.
.	4c 4F#\	.	4a#X/)	.	[[
=8	=8	=8	=8	=8	=8
!	!LO:N:vis=2.	!	!	!	!
2.G/	4G\	.	4b\	1	.
.	4c#X 4A#X\	.	(4.ee\	.	>
.	4d 4B\	.	.	.	.
.	.	.	8dd\	.	]]
=9	=9	=9	=9	=9	=9
!	!LO:N:vis=2.	!	!	!	!
2.C/	4C\	.	8cc\L	.	.
.	.	.	8b\J	.	.
.	4A 4E\	.	4a/	.	.
.	4A 4E\	.	8g/L	4	.
.	.	.	8e/J)	.	.
=10	=10	=10	=10	=10	=10
!	!LO:N:vis=2.	!	!	!	!
2.D/	4D\	.	(2d/	.	.
.	4B 4G\	.	.	.	.
.	4B 4G\	.	4g/)	2	.
=11	=11	=11	=11	=11	=11
!	!LO:N:vis=2.	!	!	!	!
2.D/	4D\	.	(8a/L	.	.
.	.	.	8cc/J	.	.
.	4c 4F#\	.	4b/	.	.
.	4c 4F#\	.	4a/	.	.
=12	=12	=12	=12	=12	=12
4B/	[2G\	.	4g/	.	.
4d/	.	.	4b/	.	.
8B/	8G\]	.	8g/)|>	.	.
8r	8rBByy	.	8r	.	.
=13	=13	=13	=13	=13	=13
!	!LO:N:vis=2.	!	!	!	!
2.E/	4E\	4	(8g/L	3	p
.	.	.	8f#/J	.	.
.	4B 4G\	.	4e/	.	.
.	4B 4G\	.	4g/	.	.
!!LO:LB:g=original
=14	=14	=14	=14	=14	=14
!	!LO:N:vis=2.	!	!	!	!
2.AA/	4AA\	.	8f#'/)	.	.
.	.	.	8r	.	.
.	4F# 4C\	.	(4.a^/	4	.
.	4F# 4C\	.	.	.	.
.	.	.	8f#/)	.	.
=15	=15	=15	=15	=15	=15
!	!LO:N:vis=2.	!	!	!	!
2.BB/	4BB\	.	(8e/L	1	.
.	.	.	8d#X/J)	2	.
.	4A 4F# 4D#X\	.	(4.b^\	.	.
.	4A 4F# 4D#\	.	.	.	.
.	.	.	8a\)	.	.
=16	=16	=16	=16	=16	=16
!	!LO:N:vis=2.	!	!	!	!
2.E/	4E\	4	(4a/	.	.
.	4B 4G\	.	4g/	.	.
.	4B 4G\	.	4e/)	.	.
=17	=17	=17	=17	=17	=17
!	!LO:N:vis=2.	!	!	!	!
2.E/	4E\	5	(8b/L	4	.
.	.	.	8a/J	.	.
.	4d 4B\	.	4g#X/	.	.
!	!	!	!LO:TX:b:i:t=ralen	!	!
.	4d 4G#X\	.	4b/	.	.
*v	*v	*	*	*	*
=18	=18	=18	=18	=18
(4c 4A\	4	8a/)|	.	.
.	.	8r	.	.
8e\)|	.	4.cc;\	4	.
8r;	.	.	.	.
4r	.	.	.	.
.	.	8b\	.	.
=19	=19	=19	=19	=19
*^	*	*	*	*
!	!LO:N:vis=2.	!	!LO:TX:a:i:t=a tempo	!	!
2.D/	4D\	.	(>8a/L	.	.
.	.	.	8g/J	1	.
.	4c 4A\	.	4f#/	2	.
.	4c 4F#\	.	4a/	.	.
=20	=20	=20	=20	=20	=20
!	!LO:N:vis=2.	!	!	!	!
2.G/	4G\	.	8g/)|	.	.
.	.	.	8r	.	.
.	(>4c#X 4A#X\	.	(4.ee^\	5	sf
.	4d'> 4B\)	.	.	.	.
.	.	.	8dd\)	.	.
!!LO:LB:g=original
=21	=21	=21	=21	=21	=21
!	!LO:N:vis=2.	!	!	!	!
2.C/	4C\	.	(8.cc\L	.	.
.	.	.	16b\Jk	.	>
.	4A 4E\	.	4a/	.	.
.	4A 4E\	.	8g/L	4	.
.	.	.	8e/J)	.	]]
=22	=22	=22	=22	=22	=22
!	!LO:N:vis=2.	!	!	!	!
2.D/	4D\	.	(2d/	.	.
.	4B 4G\	.	.	.	.
.	4B 4G\	.	4g/)	3	.
=23	=23	=23	=23	=23	=23
!	!LO:N:vis=2.	!	!	!	!
2.D/	4D\	.	(<8.f#/L	.	.
.	.	.	16g/Jk	1	<
.	4c 4F#\	.	4a/	.	.
.	4c 4F#\	.	4a#X/	.	[[
=24	=24	=24	=24	=24	=24
!	!LO:N:vis=2.	!	!	!	!
2.G/	4G\	.	8b\)|	.	.
.	.	.	8r	.	.
.	(>4c#X 4A#X\	.	(4.ee^\	2	>
.	4d'> 4B\)	.	.	.	.
.	.	.	8dd\)	1	]
=25	=25	=25	=25	=25	=25
!	!LO:N:vis=2.	!	!	!	!LO:DY:t=f.
2.C/	4C\	.	(8.ccc\L	5	f
.	.	.	16bb\Jk	4	.
.	4A 4E\	.	4aa\	3	.
.	4A 4E\	.	8gg\L	2	.
.	.	.	8ee\J)	1	.
=26	=26	=26	=26	=26	=26
!	!LO:N:vis=2.	!	!	!	!
2.D/	4D\	.	(2dd\	2	.
.	4B 4G\	.	.	1	.
.	4B 4G\	.	4gg\)	2	.
=27	=27	=27	=27	=27	=27
!	!LO:N:vis=2.	!	!	!	!
2.D/	4D\	.	(8.aa\L	.	.
.	.	.	16ccc\Jk	.	.
.	4c 4F#\	.	4bb\	.	.
.	4c 4F#\	.	4aa\	.	.
=28	=28	=28	=28	=28	=28
4B/	[2G\	.	4gg\	.	.
4d/	.	.	4bb\	.	.
8B/	8G\]	.	8gg'\)	.	.
8r	8ryy	.	8r	.	.
*v	*v	*	*	*	*
==	==	==	==	==
*-	*-	*-	*-	*-
!!!system-decoration: {s1,s2}
!!!RDF**kern: > = above
!!!RDF**kern:< = below
!!!RDF**kern: | = vertical stroke
!!!ENC: Marta Lawrence
!!!ENC: 2021-05-01
!!!ENC: Marcin Jachim
!!!END: 2021-04-17
